X: 1481
T: Gervasoni Schottische No 1
B: australian traditional tunes wiki
M:4/4
L:1/8
R: Schottische
Q: 1/4=100
K:G
V:1 
|:"G"B>A G>F "D7"A>G F/G/E|"G"G2D2D2B,>C|1D>E F>G "D7"A>G A>E|"G"B6A2:|2D>E F>G "D7"A>G A>B|"G  FINE"G6z2||
B,2D2G>F G>A|"D7"G2F2F4|E2F2E2F2|"G"E2D2D4|B,2D2G>F G>A|"D7"G2A2A4|E2F2E2D2|"G" G4"D7 D.C. al Fine"A4||
% abcbook-tune_id 6342d53a20a76e6e07d05cb9


% abcbook-boost 0
% abcbook-tablature 
% abcbook-transpose 
% abcbook-lastupdated 1665324367199
% abcbook-soundfonts 
% abcbook-repeats 1
% NFF Book 2007

